actions/16/tab-new.svg

<svg xmlns="http://www.w3.org/2000/svg" viewBox="0 0 16 16">
  <defs id="defs3051">
<style type="text/css" id="current-color-scheme">.ColorScheme-Text {color:#fcfcfc;}</style>
  </defs>
 <path style="fill:currentColor;fill-opacity:1;stroke:none"
     d="m 2,2 c 0,0 0,8 0,10 0,2 2,2 2,2 H 8 V 13 H 4 C 4,13 3,13 3,12 3,11 3,3 3,3 h 3 v 2 h 5 2 v 3 h 1 V 4 H 11 V 2 H 10 6 Z m 9,7 v 2 H 9 v 1 h 2 v 2 h 1 v -2 h 2 V 11 H 12 V 9 Z"
     class="ColorScheme-Text"
     />
</svg>

<svg xmlns="http://www.w3.org/2000/svg" viewBox="0 0 16 16">
  <defs id="defs3051">
    <style type="text/css" id="current-color-scheme">
      .ColorScheme-Text {
        color:#eff0f1;
      }
      </style>
  </defs>
 <path style="fill:currentColor;fill-opacity:1;stroke:none" 
     d="M 2 2 L 2 14 L 8 14 L 8 13 L 3 13 L 3 3 L 6 3 L 6 5 L 11 5 L 13 5 L 13 8 L 14 8 L 14 4 L 11 4 L 11 2 L 10 2 L 6 2 L 2 2 z M 11 9 L 11 11 L 9 11 L 9 12 L 11 12 L 11 14 L 12 14 L 12 12 L 14 12 L 14 11 L 12 11 L 12 9 L 11 9 z "
     class="ColorScheme-Text"
     />
</svg>
